symbols/web/set_meal/materialsymbolsoutlined/set_meal_wght200grad200fill1_48px.svg

<svg xmlns="http://www.w3.org/2000/svg" height="48" width="48"><path d="M6.9 28.55q-1.45 0-2.45-1-1-1-1-2.45V8.85q0-1.4 1-2.425T6.9 5.4h34.25q1.4 0 2.425 1.025T44.6 8.85V25.1q0 1.45-1.025 2.45-1.025 1-2.425 1Zm-.15 7.05-.1-1.8 34.7-1.8.1 1.75Zm-.15 4.95V38.8h34.8v1.75ZM21.8 21.8q3.05 0 5.8-1.025t4.8-2.975q.4 1.4 1.65 2.2 1.25.8 2.9 1v-8.05q-1.65.25-2.95 1.1-1.3.85-1.6 2.15-2.2-1.95-4.875-3T21.8 12.15q-3.45 0-6.525 1.375T10.55 17q1.65 2.1 4.725 3.45Q18.35 21.8 21.8 21.8Z"/></svg>

<svg xmlns="http://www.w3.org/2000/svg" height="48" width="48"><path d="M6.9 28.55Q5.45 28.55 4.45 27.55Q3.45 26.55 3.45 25.1V8.85Q3.45 7.45 4.45 6.425Q5.45 5.4 6.9 5.4H41.15Q42.55 5.4 43.575 6.425Q44.6 7.45 44.6 8.85V25.1Q44.6 26.55 43.575 27.55Q42.55 28.55 41.15 28.55ZM6.75 35.6 6.65 33.8 41.35 32 41.45 33.75ZM6.6 40.55V38.8H41.4V40.55ZM21.8 21.8Q24.85 21.8 27.6 20.775Q30.35 19.75 32.4 17.8Q32.8 19.2 34.05 20Q35.3 20.8 36.95 21V12.95Q35.3 13.2 34 14.05Q32.7 14.9 32.4 16.2Q30.2 14.25 27.525 13.2Q24.85 12.15 21.8 12.15Q18.35 12.15 15.275 13.525Q12.2 14.9 10.55 17Q12.2 19.1 15.275 20.45Q18.35 21.8 21.8 21.8Z"/></svg>
